X:40
T:Le bon tabac
Z:Transcrit et/ou corrig? par Michel BELLON - 2007-04-27
Z:Pour toute observation mailto:galouvielle@free.fr
M:2/4
Q:1/4=112
L:1/8
K:G
V:1
P:Intro
Z8 S || [P:A] GA BG | A2 AB | c2 c2 |
w: J'ai du bonc ta-bac dans ma ta-ba-
B2B2 | GA BG | A2AB | c2d2 | G2z2 || 
w:ti?-re j'ai du bon ta-bac tu n'en au-ras pas
P:B
d2dc | B2 AB | c2d2 | A4 | d2dc |
w:J'en ai du fin et du bien r?-p? mais ce n'est
B2AB | c2d2 | A4 [P:C] |: G/A/B/G/ AA/B/ |
w:pas pour ton vi-lain nez J'ai du bon ta-bac dans ma
cc BB | G/A/B/G/ AA/B/ | cd G2 :| z2 z2 S ||
w:ta-ba-ti?-re j'ai du bon ta-bac tu n'en au-ras pas
T:Double
Z8 || GA BG | AG AB | cB cA | 
Bc BA | GA BG | AG AB | cB cd | BA Bc | 
de dc | BA Bc | Bd cB | ADFA | de dc | 
BA Bc | Bd cB | A4 [P:C] |: G/A/B/G/ A/G/A/B/ |
c/B/c/A/ B/c/B/A/ | G/A/B/G/ A/G/A/B/ | c/B/c/d/ G2 :| z2z2 ||
<end>
<start>
